X:0445
T:The House of Gray.
M:6/8
L:1/8
Q:3/8=120
I: :: ::
Z:Jack Campin * www.campin.me.uk * 2009
K:A Minor
E|A3   c2e|dBG dBG|A3   c2d        |ece ece|
  gag ^f2e|dBg dBG|A2A (c/B/c/d/).e|dBG A2::
B|c2c  g2c|ece dBG|c2c  g2c        |ece geg|
  aba Tg2e|dBg dBG|A2A  c/B/c/d/e  |dBG A2:|

